z_dist/img/icons/crypto/polygon-MATIC.svg

<svg width="64" height="64" viewBox="0 0 64 64" fill="none" xmlns="http://www.w3.org/2000/svg">
<rect y="0.000244141" width="64" height="64" rx="4" fill="white"/>
<path d="M41.6014 25.5732C40.9191 25.1807 40.0418 25.1807 39.262 25.5732L33.8033 28.8112L30.0993 30.8717L24.7381 34.1097C24.0557 34.5022 23.1785 34.5022 22.3986 34.1097L18.2072 31.5586C17.5248 31.1661 17.0375 30.3811 17.0375 29.4981V24.592C17.0375 23.8071 17.4274 23.0221 18.2072 22.5315L22.3986 20.0785C23.081 19.686 23.9583 19.686 24.7381 20.0785L28.9295 22.6296C29.6119 23.0221 30.0993 23.8071 30.0993 24.6901V27.9281L33.8033 25.7695V22.4334C33.8033 21.6484 33.4134 20.8634 32.6336 20.3728L24.8355 15.7612C24.1532 15.3687 23.2759 15.3687 22.4961 15.7612L14.5031 20.471C13.7233 20.8634 13.3334 21.6484 13.3334 22.4334V31.6567C13.3334 32.4417 13.7233 33.2266 14.5031 33.7172L22.3986 38.3289C23.081 38.7214 23.9583 38.7214 24.7381 38.3289L30.0993 35.1891L33.8033 33.0304L39.1645 29.8905C39.8469 29.4981 40.7241 29.4981 41.504 29.8905L45.6954 32.3436C46.3778 32.736 46.8651 33.521 46.8651 34.4041V39.3101C46.8651 40.0951 46.4752 40.88 45.6954 41.3707L41.6014 43.8237C40.9191 44.2162 40.0418 44.2162 39.262 43.8237L35.0705 41.3707C34.3882 40.9782 33.9008 40.1932 33.9008 39.3101V36.1703L30.1967 38.3289V41.5669C30.1967 42.3519 30.5866 43.1368 31.3664 43.6274L39.262 48.2391C39.9443 48.6316 40.8216 48.6316 41.6014 48.2391L49.497 43.6274C50.1793 43.2349 50.6667 42.45 50.6667 41.5669V32.2454C50.6667 31.4605 50.2768 30.6755 49.497 30.1849L41.6014 25.5732Z" fill="#8247E5"/>
</svg>

<svg width="64" height="64" fill="none" xmlns="http://www.w3.org/2000/svg"><rect width="64" height="64" rx="4" fill="#fff"/><path d="M41.601 25.573c-.682-.392-1.56-.392-2.339 0l-5.459 3.238-3.704 2.06-5.36 3.239c-.683.392-1.56.392-2.34 0l-4.192-2.551a2.395 2.395 0 01-1.17-2.06v-4.907c0-.785.39-1.57 1.17-2.06l4.192-2.454c.682-.392 1.56-.392 2.34 0l4.19 2.552a2.395 2.395 0 011.17 2.06v3.238l3.704-2.159v-3.336c0-.785-.39-1.57-1.17-2.06l-7.798-4.612c-.682-.392-1.56-.392-2.339 0l-7.993 4.71c-.78.392-1.17 1.177-1.17 1.962v9.224c0 .785.39 1.57 1.17 2.06L22.4 38.33c.682.392 1.56.392 2.34 0l5.36-3.14 3.704-2.159 5.361-3.14c.683-.392 1.56-.392 2.34 0l4.191 2.454a2.394 2.394 0 011.17 2.06v4.906c0 .785-.39 1.57-1.17 2.06l-4.094 2.454c-.682.392-1.56.392-2.339 0l-4.191-2.453a2.395 2.395 0 01-1.17-2.06v-3.14l-3.704 2.158v3.238c0 .785.39 1.57 1.17 2.06l7.895 4.612c.682.393 1.56.393 2.34 0l7.895-4.612a2.395 2.395 0 001.17-2.06v-9.322c0-.784-.39-1.57-1.17-2.06l-7.896-4.612z" fill="#8247E5"/></svg>
